www/assets/icons/location_off.svg

<svg xmlns="http://www.w3.org/2000/svg" width="24" height="24" viewBox="0 0 24 24" fill='currentColor'><path d="M13 6.5A2.5 2.5 0 0 1 15.5 9c0 .74-.33 1.39-.83 1.85l3.63 3.63c.98-1.86 1.7-3.8 1.7-5.48 0-3.87-3.13-7-7-7a7 7 0 0 0-5.04 2.15l3.19 3.19c.46-.52 1.11-.84 1.85-.84M4.27 3 3 4.27l3.18 3.18C6.07 7.95 6 8.47 6 9c0 5.25 7 13 7 13s1.67-1.85 3.38-4.35L19.73 21 21 19.73z"/></svg>

<svg width="24" height="24" viewBox="0 0 24 24" xmlns="http://www.w3.org/2000/svg" fill='currentColor'><path d="M13 6.5C14.38 6.5 15.5 7.62 15.5 9C15.5 9.74 15.17 10.39 14.67 10.85L18.3 14.48C19.28 12.62 20 10.68 20 9C20 5.13 16.87 2 13 2C11.02 2 9.24 2.83 7.96 4.15L11.15 7.34C11.61 6.82 12.26 6.5 13 6.5ZM4.27 3L3 4.27L6.18 7.45C6.07 7.95 6 8.47 6 9C6 14.25 13 22 13 22C13 22 14.67 20.15 16.38 17.65L19.73 21L21 19.73L4.27 3Z"/></svg>
